app/images/icons/x-icon.svg

<?xml version="1.0" encoding="UTF-8" standalone="no"?>
<svg width="14px" height="14px" viewBox="0 0 14 14" version="1.1" xmlns="http://www.w3.org/2000/svg" xmlns:xlink="http://www.w3.org/1999/xlink" xmlns:sketch="http://www.bohemiancoding.com/sketch/ns">
    <!-- Generator: Sketch 3.1.1 (8761) - http://www.bohemiancoding.com/sketch -->
    <title>close</title>
    <desc>Created with Sketch.</desc>
    <defs></defs>
    <g id="Page-1" stroke="none" stroke-width="1" fill="none" fill-rule="evenodd" sketch:type="MSPage">
        <path d="M13.0602194,10.5810096 L9.47919153,6.99998164 L13.0602194,3.41895373 C13.1088307,3.35413875 13.1412382,3.28932376 13.1412382,3.20830503 C13.1412382,3.1272863 13.1088307,3.06247132 13.0602194,2.99765633 L11.0023437,0.939780563 C10.9375287,0.891169325 10.8727137,0.858761832 10.791695,0.858761832 C10.7106762,0.858761832 10.6458613,0.891169325 10.5810463,0.939780563 L7.00001836,4.52080847 L3.41899045,0.939780563 C3.35417546,0.891169325 3.28936048,0.858761832 3.20834175,0.858761832 C3.12732302,0.858761832 3.06250803,0.891169325 2.99769305,0.939780563 L0.93981728,2.99765633 C0.891206041,3.06247132 0.858798549,3.1272863 0.858798549,3.20830503 C0.858798549,3.28932376 0.891206041,3.35413875 0.93981728,3.41895373 L4.52084519,6.99998164 L0.93981728,10.5810096 C0.891206041,10.6458245 0.858798549,10.7106395 0.858798549,10.7916583 C0.858798549,10.872677 0.891206041,10.937492 0.93981728,11.002307 L2.99769305,13.0601827 C3.06250803,13.108794 3.12732302,13.1412015 3.20834175,13.1412015 C3.28936048,13.1412015 3.35417546,13.108794 3.41899045,13.0601827 L7.00001836,9.47915481 L10.5810463,13.0601827 C10.6458613,13.108794 10.7106762,13.1412015 10.791695,13.1412015 C10.8727137,13.1412015 10.9375287,13.108794 11.0023437,13.0601827 L13.0602194,11.002307 C13.1088307,10.937492 13.1412382,10.872677 13.1412382,10.7916583 C13.1412382,10.7106395 13.1088307,10.6458245 13.0602194,10.5810096 L13.0602194,10.5810096 Z" id="close" fill="#516378" sketch:type="MSShapeGroup"></path>
    </g>
</svg>

<svg width="14" height="14" viewBox="0 0 14 14" xmlns="http://www.w3.org/2000/svg">
    <desc>
        Created with Sketch.
    </desc>
    <path d="M13.06 10.58L9.48 7l3.58-3.58c.05-.066.08-.13.08-.212 0-.08-.03-.146-.08-.21L11.002.94c-.064-.05-.13-.08-.21-.08-.08 0-.146.03-.21.08L7 4.52 3.42.94C3.353.89 3.29.86 3.207.86c-.08 0-.145.03-.21.08L.94 2.998c-.05.064-.08.13-.08.21 0 .08.03.146.08.21L4.52 7 .94 10.58c-.05.066-.08.13-.08.212 0 .08.03.145.08.21l2.058 2.058c.065.05.13.08.21.08.08 0 .146-.03.21-.08L7 9.48l3.58 3.58c.066.05.13.08.212.08.08 0 .146-.03.21-.08l2.058-2.058c.05-.065.08-.13.08-.21 0-.08-.03-.146-.08-.21z" fill="#516378"/>
</svg>
